!!!OTL: Erloesung vom Galgen Es schpuellen drai Khauflaeit bai ainen Disch.
!!!ARE: Europa, Osteuropa, Ungarn, Komitat Wessprim, Veszpremfajsz
!!!YOR: 1, S. 236
!!    1931 aufgezeichnet
!!!SCT: Q0022B
!!!YEM: Copyright 1995, estate of Helmut Schaffrath.
**kern
*ICvox
*Ivox
*M4/8
*k[f#]
*e:
{8e
=1
8e
8b
8b
8b
=2
8b
8a
8a
8a
=3
8b
8a
8gn
8b
=4
4f#
8r}
{8e
=5
8e
8b
8b
8b
=6
8b
8a
8a
8a
=7
8b
8a
8gn
8b
=8
4f#
8r}
{8f#
=9
4gn
8a
8a
=10
4b
8a
8f#
=11
4gn
4f#
=12
4e
8r}
==
!!!AGN: Spiel, Hinrichtung, Opfer, Rettung
!!!ONB: ESAC (Essen Associative Code) Database: BALLADE
!!!AMT: simple quadruple
!!!AIN: vox
!!!EED: Helmut Schaffrath
!!!EEV: 1.0
*-
